Newaita-dark/apps/48/briss-icon.svg

<svg height="48" viewBox="0 0 48 48" width="48" xmlns="http://www.w3.org/2000/svg" xmlns:xlink="http://www.w3.org/1999/xlink"><linearGradient id="a" gradientTransform="matrix(.111618 0 0 .093759 -3.945504 20.158178)" gradientUnits="userSpaceOnUse" x1="254" x2="254" y1="233.5" y2="254.666672"><stop offset="0" stop-opacity=".27451"/><stop offset="1" stop-opacity="0"/></linearGradient><linearGradient id="b"><stop offset="0" stop-opacity=".313726"/><stop offset=".222222" stop-opacity=".27451"/><stop offset="1" stop-opacity="0"/></linearGradient><radialGradient id="c" cx="450.908936" cy="189.579361" gradientTransform="matrix(.00000026 -.117199 -.210958 -.00000015 75.715273 95.392999)" gradientUnits="userSpaceOnUse" r="21.166656" xlink:href="#b"/><radialGradient id="d" cx="450.908936" cy="189.579361" gradientTransform="matrix(-.00000026 .117199 .210958 .00000015 -28.085722 -11.291218)" gradientUnits="userSpaceOnUse" r="21.166656" xlink:href="#b"/><radialGradient id="e" cx="450.908936" cy="189.579361" gradientTransform="matrix(-.00000026 -.117199 .210958 -.00000015 -28.085722 95.392999)" gradientUnits="userSpaceOnUse" r="21.166656" xlink:href="#b"/><radialGradient id="f" cx="450.908936" cy="189.579361" gradientTransform="matrix(.00000026 .117199 -.210958 .00000015 75.71527 -11.291219)" gradientUnits="userSpaceOnUse" r="21.166656" xlink:href="#b"/><linearGradient id="g" gradientUnits="userSpaceOnUse" x1="23.814786" x2="23.814786" y1="42.0509005" y2="4.34415549995"><stop offset="0" stop-color="#e0e0e0"/><stop offset="1" stop-color="#eee"/></linearGradient><linearGradient id="h"><stop offset="0" stop-color="#5c6bc0"/><stop offset="1" stop-color="#7986cb"/></linearGradient><linearGradient id="i" gradientUnits="userSpaceOnUse" x1="38.78924394122" x2="38.78924394122" xlink:href="#h" y1="-24.34938184647" y2="13.35736174719"/><filter id="j" height="100%" width="100%" x="0%" y="0%"><feColorMatrix in="SourceGraphic" type="matrix" values="0 0 0 0 1 0 0 0 0 1 0 0 0 0 1 0 0 0 1 0"/></filter><mask id="k"><g filter="url(#j)"><path d="m0 0h48v48h-48z" fill-opacity=".99"/></g></mask><linearGradient id="l" gradientUnits="userSpaceOnUse" x1="23.814813" x2="23.814813" xlink:href="#h" y1="44.53170380616" y2="-.12107693805"/><clipPath id="m"><path d="m0 0h48v48h-48z"/></clipPath><mask id="n"><g filter="url(#j)"><path d="m0 0h48v48h-48z" fill-opacity=".99"/></g></mask><clipPath id="o"><path d="m0 0h48v48h-48z"/></clipPath><mask id="p"><g filter="url(#j)"><path d="m0 0h48v48h-48z" fill-opacity=".99"/></g></mask><clipPath id="q"><path d="m0 0h48v48h-48z"/></clipPath><mask id="r"><g filter="url(#j)"><path d="m0 0h48v48h-48z" fill-opacity=".99"/></g></mask><clipPath id="s"><path d="m0 0h48v48h-48z"/></clipPath><path d="m11.410156 42.050781h24.808594v1.984375h-24.808594zm0 0" fill="url(#a)"/><path d="m36.21875 42.050781h3.96875v-1.984375h-3.96875zm0 0" fill="url(#c)"/><path d="m11.410156 42.050781h-3.96875v1.984375h3.96875zm0 0" fill="url(#d)"/><path d="m11.410156 42.050781h-3.96875v-1.984375h3.96875zm0 0" fill="url(#e)"/><path d="m36.21875 42.050781h3.96875v1.984375h-3.96875zm0 0" fill="url(#f)"/><path d="m29.859375 4.34375h-19.9375c-1.097656 0-1.984375.886719-1.984375 1.984375v33.738281c0 1.097656.886719 1.984375 1.984375 1.984375h27.785156c1.097657 0 1.984375-.886719 1.984375-1.984375v-26.710937zm0 0" fill="url(#g)"/><path d="m29.859375 4.34375 9.832031 9.011719v-7.027344c0-1.097656-.886718-1.984375-1.984375-1.984375zm0 0" fill="url(#i)"/><path d="m7.9375 39.570312v.496094c0 1.097656.886719 1.984375 1.984375 1.984375h27.785156c1.097657 0 1.984375-.886719 1.984375-1.984375v-.496094c0 1.097657-.886718 1.984376-1.984375 1.984376h-27.785156c-1.097656 0-1.984375-.886719-1.984375-1.984376zm0 0" fill-opacity=".235294"/><path d="m9.921875 4.34375c-1.097656 0-1.984375.886719-1.984375 1.984375v.496094c0-1.097657.886719-1.984375 1.984375-1.984375h19.9375l9.832031 9.011718v-.496093l-9.832031-9.011719zm0 0" fill="#fff" fill-opacity=".588235"/><path d="m29.859375 4.34375.539063.496094h7.308593c1.097657 0 1.984375.886718 1.984375 1.984375v-.496094c0-1.097656-.886718-1.984375-1.984375-1.984375zm0 0" fill="#fff" fill-opacity=".392157"/><path d="m29.859375 4.34375 9.832031 9.011719v-.824219l-8.929687-8.1875zm0 0" fill-opacity=".235294"/><path d="m1203.664647 175.101398h-803.70282c-44.247746 0-79.992366 35.74462-79.992366 79.992365v1360.027676c0 44.247745 35.74462 79.992365 79.992366 79.992365h1120.050579c44.247746 0 79.992366-35.74462 79.992366-79.992365v-1076.747626zm0 0" fill="none" stroke="#212121" stroke-linecap="round" stroke-linejoin="round" stroke-width="11.338583" transform="scale(.0248071)"/><path d="m318.469588-168.671091 104.864986 96.115822v-74.951176c0-11.707216-9.457431-21.164646-21.164646-21.164646zm0 0" fill="none" stroke="#212121" stroke-linecap="round" stroke-linejoin="round" stroke-width="3" transform="matrix(.093759 0 0 .093759 0 20.158175)"/><g clip-path="url(#m)" mask="url(#k)"><path d="m13.890625 9.800781c-.546875 0-.992187.445313-.992187.992188v1.984375h-1.984376c-.546874 0-.992187.445312-.992187.992187 0 .550781.445313.992188.992187.992188h1.984376v18.855469c0 .035156.003906.066406.007812.101562 0 .015625.003906.03125.003906.050781.074219.476563.484375.839844.980469.839844h18.855469v1.984375c0 .550781.441406.992188.992187.992188s.992188-.441407.992188-.992188v-1.984375h1.984375c.550781 0 .992187-.441406.992187-.992187 0-.550782-.441406-.992188-.992187-.992188h-1.984375v-18.855469c0-.03125-.003907-.066406-.003907-.101562-.003906-.015625-.003906-.03125-.007812-.046875-.074219-.480469-.484375-.84375-.980469-.84375h-18.855469v-1.984375c0-.546875-.441406-.992188-.992187-.992188zm.992187 4.960938h17.863282v17.863281h-17.863282zm0 0" fill="url(#l)"/></g><g clip-path="url(#o)" mask="url(#n)"><path d="m13.890625 9.800781c-.546875 0-.992187.445313-.992187.992188v.496093c0-.546874.445312-.992187.992187-.992187.550781 0 .992187.445313.992187.992187v-.496093c0-.546875-.441406-.992188-.992187-.992188zm-2.976563 2.976563c-.546874 0-.992187.445312-.992187.992187 0 .085938.011719.167969.03125.25.109375-.429687.5-.746093.960937-.746093h1.984376v-.496094zm3.96875 0v.496094h18.855469c.496094 0 .90625.363281.980469.84375.003906.015624.003906.03125.007812.046874 0 .035157.003907.070313.003907.101563v-.496094c0-.03125-.003907-.066406-.003907-.101562-.003906-.015625-.003906-.03125-.007812-.046875-.074219-.480469-.484375-.84375-.980469-.84375zm0 19.847656v.496094h17.863282v-.496094zm19.847657 0v.496094h1.984375c.464844 0 .851562.3125.960937.742187.019531-.078125.03125-.160156.03125-.246093 0-.550782-.441406-.992188-.992187-.992188zm0 0" fill="#fff" fill-opacity=".392157"/></g><g clip-path="url(#q)" mask="url(#p)"><path d="m10.054688 14.265625c-.082032.148437-.132813.316406-.132813.496094 0 .550781.445313.992187.992187.992187h1.984376v-.992187h-1.984376c-.367187 0-.6875-.199219-.859374-.496094zm4.828124.496094v.992187h17.863282v-.992187zm-1.984374 18.855469v.992187c0 .035156.003906.066406.007812.101563 0 .015624.003906.03125.003906.050781.074219.476562.484375.839843.980469.839843h18.855469v-.992187h-18.855469c-.496094 0-.90625-.363281-.980469-.839844 0-.019531-.003906-.035156-.003906-.050781-.003906-.035156-.007812-.066406-.007812-.101562zm24.675781.496093c-.171875.296875-.492188.496094-.859375.496094h-1.984375v.992187h1.984375c.550781 0 .992187-.441406.992187-.992187 0-.183594-.046875-.351563-.132812-.496094zm-4.828125 2.480469v.992188c0 .550781.441406.992187.992187.992187s.992188-.441406.992188-.992187v-.992188c0 .550781-.441407.992188-.992188.992188s-.992187-.441407-.992187-.992188zm0 0" fill-opacity=".235294"/></g><g clip-path="url(#s)" mask="url(#r)"><path d="m148.152519-110.468316c-5.832777 0-10.582323 4.749547-10.582323 10.582323v21.164646h-21.164646c-5.832776 0-10.582322 4.749546-10.582322 10.582322 0 5.874439 4.749546 10.582323 10.582322 10.582323h21.164646v201.105796c0 .374964.041663.708265.083325 1.083229 0 .166651.041663.333302.041663.541615.791591 5.082848 5.166173 8.957478 10.457335 8.957478h201.105795v21.164646c0 5.874439 4.707884 10.582323 10.582323 10.582323s10.582323-4.707884 10.582323-10.582323v-21.164646h21.164645c5.874439 0 10.582323-4.707883 10.582323-10.582322s-4.707884-10.582323-10.582323-10.582323h-21.164645v-201.105796c0-.333301-.041663-.708265-.041663-1.083229-.041663-.166651-.041663-.333302-.083325-.499953-.791591-5.12451-5.166174-8.99914-10.457335-8.99914h-201.105795v-21.164646c0-5.832776-4.707884-10.582323-10.582323-10.582323zm10.582323 52.911614h190.523472v190.523473h-190.523472zm0 0" fill="none" stroke="#212121" stroke-linecap="round" stroke-linejoin="round" stroke-width="3" transform="matrix(.093759 0 0 .093759 0 20.158175)"/></g></svg>

<?xml version="1.0" encoding="UTF-8"?>
<svg xmlns="http://www.w3.org/2000/svg" xmlns:xlink="http://www.w3.org/1999/xlink" width="48px" height="48px" viewBox="0 0 48 48" version="1.1">
<defs>
<linearGradient id="linear0" gradientUnits="userSpaceOnUse" x1="254" y1="233.5" x2="254" y2="254.666672" gradientTransform="matrix(0.111618,0,0,0.093759,-3.945504,20.158178)">
<stop offset="0" style="stop-color:rgb(0%,0%,0%);stop-opacity:0.27451;"/>
<stop offset="1" style="stop-color:rgb(0%,0%,0%);stop-opacity:0;"/>
</linearGradient>
<radialGradient id="radial0" gradientUnits="userSpaceOnUse" cx="450.908936" cy="189.579361" fx="450.908936" fy="189.579361" r="21.166656" gradientTransform="matrix(0.000000261256,-0.117199,-0.210958,-0.000000152308,75.715273,95.392999)">
<stop offset="0" style="stop-color:rgb(0%,0%,0%);stop-opacity:0.313726;"/>
<stop offset="0.222222" style="stop-color:rgb(0%,0%,0%);stop-opacity:0.27451;"/>
<stop offset="1" style="stop-color:rgb(0%,0%,0%);stop-opacity:0;"/>
</radialGradient>
<radialGradient id="radial1" gradientUnits="userSpaceOnUse" cx="450.908936" cy="189.579361" fx="450.908936" fy="189.579361" r="21.166656" gradientTransform="matrix(-0.000000261256,0.117199,0.210958,0.000000152308,-28.085722,-11.291218)">
<stop offset="0" style="stop-color:rgb(0%,0%,0%);stop-opacity:0.313726;"/>
<stop offset="0.222222" style="stop-color:rgb(0%,0%,0%);stop-opacity:0.27451;"/>
<stop offset="1" style="stop-color:rgb(0%,0%,0%);stop-opacity:0;"/>
</radialGradient>
<radialGradient id="radial2" gradientUnits="userSpaceOnUse" cx="450.908936" cy="189.579361" fx="450.908936" fy="189.579361" r="21.166656" gradientTransform="matrix(-0.000000261256,-0.117199,0.210958,-0.000000152308,-28.085722,95.392999)">
<stop offset="0" style="stop-color:rgb(0%,0%,0%);stop-opacity:0.313726;"/>
<stop offset="0.222222" style="stop-color:rgb(0%,0%,0%);stop-opacity:0.27451;"/>
<stop offset="1" style="stop-color:rgb(0%,0%,0%);stop-opacity:0;"/>
</radialGradient>
<radialGradient id="radial3" gradientUnits="userSpaceOnUse" cx="450.908936" cy="189.579361" fx="450.908936" fy="189.579361" r="21.166656" gradientTransform="matrix(0.000000261256,0.117199,-0.210958,0.000000152308,75.71527,-11.291219)">
<stop offset="0" style="stop-color:rgb(0%,0%,0%);stop-opacity:0.313726;"/>
<stop offset="0.222222" style="stop-color:rgb(0%,0%,0%);stop-opacity:0.27451;"/>
<stop offset="1" style="stop-color:rgb(0%,0%,0%);stop-opacity:0;"/>
</radialGradient>
<linearGradient id="linear1" gradientUnits="userSpaceOnUse" x1="254" y1="233.5" x2="254" y2="-168.666672" gradientTransform="matrix(0.093759,0,0,0.093759,0,20.158174)">
<stop offset="0" style="stop-color:rgb(87.843138%,87.843138%,87.843138%);stop-opacity:1;"/>
<stop offset="1" style="stop-color:rgb(93.333334%,93.333334%,93.333334%);stop-opacity:1;"/>
</linearGradient>
<linearGradient id="linear2" gradientUnits="userSpaceOnUse" x1="413.712219" y1="-474.701691" x2="413.712219" y2="-72.535034" gradientTransform="matrix(0.093759,0,0,0.093759,0,20.158174)">
<stop offset="0" style="stop-color:rgb(36.078432%,41.960785%,75.294119%);stop-opacity:1;"/>
<stop offset="1" style="stop-color:rgb(47.450981%,52.549022%,79.607844%);stop-opacity:1;"/>
</linearGradient>
<filter id="alpha" filterUnits="objectBoundingBox" x="0%" y="0%" width="100%" height="100%">
  <feColorMatrix type="matrix" in="SourceGraphic" values="0 0 0 0 1 0 0 0 0 1 0 0 0 0 1 0 0 0 1 0"/>
</filter>
<mask id="mask0">
  <g filter="url(#alpha)">
<rect x="0" y="0" width="48" height="48" style="fill:rgb(0%,0%,0%);fill-opacity:0.99;stroke:none;"/>
  </g>
</mask>
<linearGradient id="linear3" gradientUnits="userSpaceOnUse" x1="880" y1="1895.118164" x2="880" y2="95.118134" gradientTransform="matrix(0.0248071,0,0,0.0248071,1.984565,-2.480682)">
<stop offset="0" style="stop-color:rgb(36.078432%,41.960785%,75.294119%);stop-opacity:1;"/>
<stop offset="1" style="stop-color:rgb(47.450981%,52.549022%,79.607844%);stop-opacity:1;"/>
</linearGradient>
<clipPath id="clip1">
  <rect x="0" y="0" width="48" height="48"/>
</clipPath>
<g id="surface5" clip-path="url(#clip1)">
<path style=" stroke:none;fill-rule:nonzero;fill:url(#linear3);" d="M 13.890625 9.800781 C 13.34375 9.800781 12.898438 10.246094 12.898438 10.792969 L 12.898438 12.777344 L 10.914062 12.777344 C 10.367188 12.777344 9.921875 13.222656 9.921875 13.769531 C 9.921875 14.320312 10.367188 14.761719 10.914062 14.761719 L 12.898438 14.761719 L 12.898438 33.617188 C 12.898438 33.652344 12.902344 33.683594 12.90625 33.71875 C 12.90625 33.734375 12.910156 33.75 12.910156 33.769531 C 12.984375 34.246094 13.394531 34.609375 13.890625 34.609375 L 32.746094 34.609375 L 32.746094 36.59375 C 32.746094 37.144531 33.1875 37.585938 33.738281 37.585938 C 34.289062 37.585938 34.730469 37.144531 34.730469 36.59375 L 34.730469 34.609375 L 36.714844 34.609375 C 37.265625 34.609375 37.707031 34.167969 37.707031 33.617188 C 37.707031 33.066406 37.265625 32.625 36.714844 32.625 L 34.730469 32.625 L 34.730469 13.769531 C 34.730469 13.738281 34.726562 13.703125 34.726562 13.667969 C 34.722656 13.652344 34.722656 13.636719 34.71875 13.621094 C 34.644531 13.140625 34.234375 12.777344 33.738281 12.777344 L 14.882812 12.777344 L 14.882812 10.792969 C 14.882812 10.246094 14.441406 9.800781 13.890625 9.800781 Z M 14.882812 14.761719 L 32.746094 14.761719 L 32.746094 32.625 L 14.882812 32.625 Z M 14.882812 14.761719 "/>
</g>
<mask id="mask1">
  <g filter="url(#alpha)">
<rect x="0" y="0" width="48" height="48" style="fill:rgb(0%,0%,0%);fill-opacity:0.99;stroke:none;"/>
  </g>
</mask>
<clipPath id="clip2">
  <rect x="0" y="0" width="48" height="48"/>
</clipPath>
<g id="surface8" clip-path="url(#clip2)">
<path style=" stroke:none;fill-rule:nonzero;fill:rgb(100%,100%,100%);fill-opacity:0.392157;" d="M 13.890625 9.800781 C 13.34375 9.800781 12.898438 10.246094 12.898438 10.792969 L 12.898438 11.289062 C 12.898438 10.742188 13.34375 10.296875 13.890625 10.296875 C 14.441406 10.296875 14.882812 10.742188 14.882812 11.289062 L 14.882812 10.792969 C 14.882812 10.246094 14.441406 9.800781 13.890625 9.800781 Z M 10.914062 12.777344 C 10.367188 12.777344 9.921875 13.222656 9.921875 13.769531 C 9.921875 13.855469 9.933594 13.9375 9.953125 14.019531 C 10.0625 13.589844 10.453125 13.273438 10.914062 13.273438 L 12.898438 13.273438 L 12.898438 12.777344 Z M 14.882812 12.777344 L 14.882812 13.273438 L 33.738281 13.273438 C 34.234375 13.273438 34.644531 13.636719 34.71875 14.117188 C 34.722656 14.132812 34.722656 14.148438 34.726562 14.164062 C 34.726562 14.199219 34.730469 14.234375 34.730469 14.265625 L 34.730469 13.769531 C 34.730469 13.738281 34.726562 13.703125 34.726562 13.667969 C 34.722656 13.652344 34.722656 13.636719 34.71875 13.621094 C 34.644531 13.140625 34.234375 12.777344 33.738281 12.777344 Z M 14.882812 32.625 L 14.882812 33.121094 L 32.746094 33.121094 L 32.746094 32.625 Z M 34.730469 32.625 L 34.730469 33.121094 L 36.714844 33.121094 C 37.179688 33.121094 37.566406 33.433594 37.675781 33.863281 C 37.695312 33.785156 37.707031 33.703125 37.707031 33.617188 C 37.707031 33.066406 37.265625 32.625 36.714844 32.625 Z M 34.730469 32.625 "/>
</g>
<mask id="mask2">
  <g filter="url(#alpha)">
<rect x="0" y="0" width="48" height="48" style="fill:rgb(0%,0%,0%);fill-opacity:0.99;stroke:none;"/>
  </g>
</mask>
<clipPath id="clip3">
  <rect x="0" y="0" width="48" height="48"/>
</clipPath>
<g id="surface11" clip-path="url(#clip3)">
<path style=" stroke:none;fill-rule:nonzero;fill:rgb(0%,0%,0%);fill-opacity:0.235294;" d="M 10.054688 14.265625 C 9.972656 14.414062 9.921875 14.582031 9.921875 14.761719 C 9.921875 15.3125 10.367188 15.753906 10.914062 15.753906 L 12.898438 15.753906 L 12.898438 14.761719 L 10.914062 14.761719 C 10.546875 14.761719 10.226562 14.5625 10.054688 14.265625 Z M 14.882812 14.761719 L 14.882812 15.753906 L 32.746094 15.753906 L 32.746094 14.761719 Z M 12.898438 33.617188 L 12.898438 34.609375 C 12.898438 34.644531 12.902344 34.675781 12.90625 34.710938 C 12.90625 34.726562 12.910156 34.742188 12.910156 34.761719 C 12.984375 35.238281 13.394531 35.601562 13.890625 35.601562 L 32.746094 35.601562 L 32.746094 34.609375 L 13.890625 34.609375 C 13.394531 34.609375 12.984375 34.246094 12.910156 33.769531 C 12.910156 33.75 12.90625 33.734375 12.90625 33.71875 C 12.902344 33.683594 12.898438 33.652344 12.898438 33.617188 Z M 37.574219 34.113281 C 37.402344 34.410156 37.082031 34.609375 36.714844 34.609375 L 34.730469 34.609375 L 34.730469 35.601562 L 36.714844 35.601562 C 37.265625 35.601562 37.707031 35.160156 37.707031 34.609375 C 37.707031 34.425781 37.660156 34.257812 37.574219 34.113281 Z M 32.746094 36.59375 L 32.746094 37.585938 C 32.746094 38.136719 33.1875 38.578125 33.738281 38.578125 C 34.289062 38.578125 34.730469 38.136719 34.730469 37.585938 L 34.730469 36.59375 C 34.730469 37.144531 34.289062 37.585938 33.738281 37.585938 C 33.1875 37.585938 32.746094 37.144531 32.746094 36.59375 Z M 32.746094 36.59375 "/>
</g>
<mask id="mask3">
  <g filter="url(#alpha)">
<rect x="0" y="0" width="48" height="48" style="fill:rgb(0%,0%,0%);fill-opacity:0.99;stroke:none;"/>
  </g>
</mask>
<clipPath id="clip4">
  <rect x="0" y="0" width="48" height="48"/>
</clipPath>
<g id="surface14" clip-path="url(#clip4)">
<path style="fill:none;stroke-width:3;stroke-linecap:round;stroke-linejoin:round;stroke:rgb(12.941177%,12.941177%,12.941177%);stroke-opacity:1;stroke-miterlimit:4;" d="M 148.152519 -110.468316 C 142.319742 -110.468316 137.570196 -105.718769 137.570196 -99.885993 L 137.570196 -78.721347 L 116.40555 -78.721347 C 110.572774 -78.721347 105.823228 -73.971801 105.823228 -68.139025 C 105.823228 -62.264586 110.572774 -57.556702 116.40555 -57.556702 L 137.570196 -57.556702 L 137.570196 143.549094 C 137.570196 143.924058 137.611859 144.257359 137.653521 144.632323 C 137.653521 144.798974 137.695184 144.965625 137.695184 145.173938 C 138.486775 150.256786 142.861357 154.131416 148.152519 154.131416 L 349.258314 154.131416 L 349.258314 175.296062 C 349.258314 181.170501 353.966198 185.878385 359.840637 185.878385 C 365.715076 185.878385 370.42296 181.170501 370.42296 175.296062 L 370.42296 154.131416 L 391.587605 154.131416 C 397.462044 154.131416 402.169928 149.423533 402.169928 143.549094 C 402.169928 137.674655 397.462044 132.966771 391.587605 132.966771 L 370.42296 132.966771 L 370.42296 -68.139025 C 370.42296 -68.472326 370.381297 -68.84729 370.381297 -69.222254 C 370.339634 -69.388905 370.339634 -69.555556 370.297972 -69.722207 C 369.506381 -74.846717 365.131798 -78.721347 359.840637 -78.721347 L 158.734842 -78.721347 L 158.734842 -99.885993 C 158.734842 -105.718769 154.026958 -110.468316 148.152519 -110.468316 Z M 158.734842 -57.556702 L 349.258314 -57.556702 L 349.258314 132.966771 L 158.734842 132.966771 Z M 158.734842 -57.556702 " transform="matrix(0.093759,0,0,0.093759,0,20.158175)"/>
</g>
</defs>
<g id="surface1">
<path style=" stroke:none;fill-rule:nonzero;fill:url(#linear0);" d="M 11.410156 42.050781 L 36.21875 42.050781 L 36.21875 44.035156 L 11.410156 44.035156 Z M 11.410156 42.050781 "/>
<path style=" stroke:none;fill-rule:nonzero;fill:url(#radial0);" d="M 36.21875 42.050781 L 40.1875 42.050781 L 40.1875 40.066406 L 36.21875 40.066406 Z M 36.21875 42.050781 "/>
<path style=" stroke:none;fill-rule:nonzero;fill:url(#radial1);" d="M 11.410156 42.050781 L 7.441406 42.050781 L 7.441406 44.035156 L 11.410156 44.035156 Z M 11.410156 42.050781 "/>
<path style=" stroke:none;fill-rule:nonzero;fill:url(#radial2);" d="M 11.410156 42.050781 L 7.441406 42.050781 L 7.441406 40.066406 L 11.410156 40.066406 Z M 11.410156 42.050781 "/>
<path style=" stroke:none;fill-rule:nonzero;fill:url(#radial3);" d="M 36.21875 42.050781 L 40.1875 42.050781 L 40.1875 44.035156 L 36.21875 44.035156 Z M 36.21875 42.050781 "/>
<path style=" stroke:none;fill-rule:nonzero;fill:url(#linear1);" d="M 29.859375 4.34375 L 9.921875 4.34375 C 8.824219 4.34375 7.9375 5.230469 7.9375 6.328125 L 7.9375 40.066406 C 7.9375 41.164062 8.824219 42.050781 9.921875 42.050781 L 37.707031 42.050781 C 38.804688 42.050781 39.691406 41.164062 39.691406 40.066406 L 39.691406 13.355469 Z M 29.859375 4.34375 "/>
<path style=" stroke:none;fill-rule:nonzero;fill:url(#linear2);" d="M 29.859375 4.34375 L 39.691406 13.355469 L 39.691406 6.328125 C 39.691406 5.230469 38.804688 4.34375 37.707031 4.34375 Z M 29.859375 4.34375 "/>
<path style=" stroke:none;fill-rule:nonzero;fill:rgb(0%,0%,0%);fill-opacity:0.235294;" d="M 7.9375 39.570312 L 7.9375 40.066406 C 7.9375 41.164062 8.824219 42.050781 9.921875 42.050781 L 37.707031 42.050781 C 38.804688 42.050781 39.691406 41.164062 39.691406 40.066406 L 39.691406 39.570312 C 39.691406 40.667969 38.804688 41.554688 37.707031 41.554688 L 9.921875 41.554688 C 8.824219 41.554688 7.9375 40.667969 7.9375 39.570312 Z M 7.9375 39.570312 "/>
<path style=" stroke:none;fill-rule:nonzero;fill:rgb(100%,100%,100%);fill-opacity:0.588235;" d="M 9.921875 4.34375 C 8.824219 4.34375 7.9375 5.230469 7.9375 6.328125 L 7.9375 6.824219 C 7.9375 5.726562 8.824219 4.839844 9.921875 4.839844 L 29.859375 4.839844 L 39.691406 13.851562 L 39.691406 13.355469 L 29.859375 4.34375 Z M 9.921875 4.34375 "/>
<path style=" stroke:none;fill-rule:nonzero;fill:rgb(100%,100%,100%);fill-opacity:0.392157;" d="M 29.859375 4.34375 L 30.398438 4.839844 L 37.707031 4.839844 C 38.804688 4.839844 39.691406 5.726562 39.691406 6.824219 L 39.691406 6.328125 C 39.691406 5.230469 38.804688 4.34375 37.707031 4.34375 Z M 29.859375 4.34375 "/>
<path style=" stroke:none;fill-rule:nonzero;fill:rgb(0%,0%,0%);fill-opacity:0.235294;" d="M 29.859375 4.34375 L 39.691406 13.355469 L 39.691406 12.53125 L 30.761719 4.34375 Z M 29.859375 4.34375 "/>
<path style="fill:none;stroke-width:11.338583;stroke-linecap:round;stroke-linejoin:round;stroke:rgb(12.941177%,12.941177%,12.941177%);stroke-opacity:1;stroke-miterlimit:4;" d="M 1203.664647 175.101398 L 399.961827 175.101398 C 355.714081 175.101398 319.969461 210.846018 319.969461 255.093763 L 319.969461 1615.121439 C 319.969461 1659.369184 355.714081 1695.113804 399.961827 1695.113804 L 1520.012406 1695.113804 C 1564.260152 1695.113804 1600.004772 1659.369184 1600.004772 1615.121439 L 1600.004772 538.373813 Z M 1203.664647 175.101398 " transform="matrix(0.0248071,0,0,0.0248071,0,0)"/>
<path style="fill:none;stroke-width:3;stroke-linecap:round;stroke-linejoin:round;stroke:rgb(12.941177%,12.941177%,12.941177%);stroke-opacity:1;stroke-miterlimit:4;" d="M 318.469588 -168.671091 L 423.334574 -72.555269 L 423.334574 -147.506445 C 423.334574 -159.213661 413.877143 -168.671091 402.169928 -168.671091 Z M 318.469588 -168.671091 " transform="matrix(0.093759,0,0,0.093759,0,20.158175)"/>
<use xlink:href="#surface5" mask="url(#mask0)"/>
<use xlink:href="#surface8" mask="url(#mask1)"/>
<use xlink:href="#surface11" mask="url(#mask2)"/>
<use xlink:href="#surface14" mask="url(#mask3)"/>
</g>
</svg>
